icons/tool-case.svg

<svg
  xmlns="http://www.w3.org/2000/svg"
  width="24"
  height="24"
  viewBox="0 0 24 24"
  fill="none"
  stroke="currentColor"
  stroke-width="2"
  stroke-linecap="round"
  stroke-linejoin="round"
>
  <path d="M 14.236 9.105 L 13.846 8.545" />
  <path d="M 15.5 11 C15.5 11 15.111 10.439 13.846 8.545" />
  <path d="M 4.225 9.732 L 6 11" />
  <path d="M10 15H14" />
  <path d="M11.0002 4.40677L9.91016 2.88477" />
  <path d="M11.07 4.44025C11.0439 4.43576 11.0197 4.42397 11 4.40625" />
  <path d="M12.8563 4.07422L11.0703 4.43922" />
  <path d="M13.8457 8.54459L14.8837 7.30859" />
  <path d="M14.8828 7.30966C15.5148 6.55566 15.4188 5.60966 14.9988 4.97266" />
  <path d="M14.9985 4.97204C14.7791 4.61802 14.4548 4.3413 14.0706 4.18049C13.6864 4.01969 13.2616 3.98282 12.8555 4.07504" />
  <path d="M15.423 3.04688L15 4.24388" />
  <path d="M17.5818 2.11485C17.1719 1.95442 16.7152 1.96234 16.3111 2.13687C15.907 2.3114 15.5881 2.63844 15.4238 3.04685" />
  <path d="M18 21.9999C18.53 21.9999 19.039 21.8219 19.414 21.5039" />
  <path d="M18.5 10.7449L20.877 5.21094" />
  <path d="M19.4141 21.5046C19.7891 21.1876 20.0001 20.7576 20.0001 20.3086" />
  <path d="M19.9431 3.05223L17.5801 2.11523" />
  <path d="M20 20.308V11" />
  <path d="M20.8764 5.21073C21.0367 4.80068 21.0287 4.34388 20.8539 3.93974C20.6792 3.53559 20.352 3.2168 19.9434 3.05273" />
  <path d="M3.00255 7.78906C2.98178 8.19973 3.0881 8.60682 3.30703 8.9549" />
  <path d="M3.30664 8.95312C3.52564 9.30112 3.84664 9.57312 4.22564 9.73312" />
  <path d="M3.42249 6.66016C3.16957 6.98437 3.02272 7.37866 3.00195 7.78933" />
  <path d="M4 11H20" />
  <path d="M4 11V20.308" />
  <path d="M4 20.3086C4 20.7576 4.211 21.1876 4.586 21.5046" />
  <path d="M4.41675 5.97656C4.02347 6.09662 3.67676 6.335 3.42383 6.65921" />
  <path d="M4.58594 21.5039C4.96094 21.8219 5.46994 21.9999 5.99994 21.9999" />
  <path d="M6 22H18" />
  <path d="M6.14102 5.55078L4.41602 5.97678" />
  <path d="M6.28363 3.63281L6.14062 5.55081" />
  <path d="M9.91115 2.88433C9.68962 2.55472 9.37497 2.29854 9.0073 2.14841C8.63963 1.99828 8.23559 1.96102 7.84667 2.04135C7.45774 2.12169 7.10154 2.316 6.82345 2.59952C6.54535 2.88303 6.35797 3.24292 6.28516 3.63333" />
</svg>

<svg
  xmlns="http://www.w3.org/2000/svg"
  width="24"
  height="24"
  viewBox="0 0 24 24"
  fill="none"
  stroke="currentColor"
  stroke-width="2"
  stroke-linecap="round"
  stroke-linejoin="round"
>
  <path d="M10 15h4" />
  <path d="M15.5 11a212 212 0 0 1-1.654-2.455l1.038-1.236c.63-.753.535-1.7.115-2.336a2 2 0 0 0-2.144-.898l-1.82.364L9.91 2.885a2 2 0 0 0-3.625.748L6.141 5.55l-1.725.426a2 2 0 0 0-.19 3.756l1.78.73-.04.537" />
  <path d="M18 22a2.2 2.2 0 0 0 1.414-.496c.375-.316.586-.746.586-1.195V12a1 1 0 0 0-1-1H5a1 1 0 0 0-1 1v8.308c0 .45.211.88.586 1.197A2.2 2.2 0 0 0 6 22z" />
  <path d="m18.5 10.745 2.377-5.534a1.67 1.67 0 0 0-.932-2.158l-2.365-.938a1.7 1.7 0 0 0-2.156.932l-.703 1.572" />
</svg>
